X:1
T:"All the Go" -- Reel
R:reel
B:Ryan's Mammoth Collection
N: 263
Z: Contributed by Ray Davies,  ray:davies99.freeserve.co.uk
M:C|
L:1/8
K:Bm
vfu(B~B2) vfB"^SEGUE"de | f(B~B2) eAce | f(B~B2) fBde | \
f^gaf eAce |
f(B~B2) fBde | f(B~B2) eAce | f(B~B2) fBde | f^gaf eAce H|]
v(fb) z ub vfe"^SEGUE"^de | (fa) z a eAce | (fB)(bB) (aB)(fB) |\
 fef^g aecA |
(fb) z b fe^de | (fa) z a eAce | .fz.bz.az.=gz | fef^g aece \
"D.C."|]
